public/filterSVGs/paint-brush-broad.svg

<svg height="32" viewBox="0 0 256 256" width="32" xmlns="http://www.w3.org/2000/svg"><path d="m216 24h-144a40 40 0 0 0 -40 40v72a24 24 0 0 0 24 24h48l-7.89 46.67a8.42 8.42 0 0 0 -.11 1.33 32 32 0 0 0 64 0 8.42 8.42 0 0 0 -.11-1.33l-7.89-46.67h48a24 24 0 0 0 24-24v-104a8 8 0 0 0 -8-8zm-144 16h104v40a8 8 0 0 0 16 0v-40h16v64h-160v-40a24 24 0 0 1 24-24zm128 104h-48a16 16 0 0 0 -15.84 18.26v.2l7.84 46.14a16 16 0 0 1 -32 0l7.8-46.14v-.2a16 16 0 0 0 -15.8-18.26h-48a8 8 0 0 1 -8-8v-16h160v16a8 8 0 0 1 -8 8z"/></svg>

<svg xmlns="http://www.w3.org/2000/svg" width="32" height="32" fill="#000000" viewBox="0 0 256 256"><path d="M216,24H72A40,40,0,0,0,32,64v72a24,24,0,0,0,24,24h48l-7.89,46.67A8.42,8.42,0,0,0,96,208a32,32,0,0,0,64,0,8.42,8.42,0,0,0-.11-1.33L152,160h48a24,24,0,0,0,24-24V32A8,8,0,0,0,216,24ZM72,40H176V80a8,8,0,0,0,16,0V40h16v64H48V64A24,24,0,0,1,72,40ZM200,144H152a16,16,0,0,0-15.84,18.26l0,.2L144,208.6a16,16,0,0,1-32,0l7.8-46.14,0-.2A16,16,0,0,0,104,144H56a8,8,0,0,1-8-8V120H208v16A8,8,0,0,1,200,144Z"></path></svg>
